app/img/comparison.svg

<svg width="58" height="32" viewBox="0 0 58 32" fill="none" xmlns="http://www.w3.org/2000/svg">
<path d="M39.52 25.104C38.9227 24.1227 38.464 22.9973 38.144 21.728C37.824 20.448 37.664 19.0773 37.664 17.616C37.664 16.1547 37.824 14.784 38.144 13.504C38.464 12.2133 38.9227 11.088 39.52 10.128H40.608C39.9787 11.2053 39.5147 12.3627 39.216 13.6C38.928 14.8373 38.784 16.176 38.784 17.616C38.784 19.056 38.928 20.3947 39.216 21.632C39.5147 22.8693 39.9787 24.0267 40.608 25.104H39.52ZM46.5616 22.096C45.6976 22.096 44.9243 21.8667 44.2416 21.408C43.5696 20.9493 43.0416 20.2933 42.6576 19.44C42.2843 18.576 42.0976 17.5627 42.0976 16.4C42.0976 15.2373 42.2843 14.2293 42.6576 13.376C43.0416 12.512 43.5696 11.8507 44.2416 11.392C44.9243 10.9333 45.6976 10.704 46.5616 10.704C47.4256 10.704 48.1936 10.9333 48.8656 11.392C49.5483 11.8507 50.0816 12.512 50.4656 13.376C50.8496 14.2293 51.0416 15.2373 51.0416 16.4C51.0416 17.5627 50.8496 18.576 50.4656 19.44C50.0816 20.2933 49.5483 20.9493 48.8656 21.408C48.1936 21.8667 47.4256 22.096 46.5616 22.096ZM46.5616 21.04C47.2123 21.04 47.783 20.8587 48.2736 20.496C48.775 20.1333 49.1643 19.6053 49.4416 18.912C49.719 18.2187 49.8576 17.3813 49.8576 16.4C49.8576 15.4187 49.719 14.5813 49.4416 13.888C49.1643 13.1947 48.775 12.6667 48.2736 12.304C47.783 11.9413 47.2123 11.76 46.5616 11.76C45.911 11.76 45.335 11.9413 44.8336 12.304C44.343 12.6667 43.959 13.1947 43.6816 13.888C43.4043 14.5813 43.2656 15.4187 43.2656 16.4C43.2656 17.3813 43.4043 18.2187 43.6816 18.912C43.959 19.6053 44.343 20.1333 44.8336 20.496C45.335 20.8587 45.911 21.04 46.5616 21.04ZM52.4994 25.104C53.1287 24.0267 53.5927 22.8747 53.8914 21.648C54.19 20.4107 54.3394 19.0667 54.3394 17.616C54.3394 16.1653 54.19 14.8267 53.8914 13.6C53.5927 12.3627 53.1287 11.2053 52.4994 10.128H53.5874C54.1847 11.088 54.6434 12.2133 54.9634 13.504C55.294 14.784 55.4594 16.1547 55.4594 17.616C55.4594 19.0773 55.2994 20.448 54.9794 21.728C54.6594 23.008 54.1954 24.1333 53.5874 25.104H52.4994Z" fill="#8D8D8D"/>
<g clip-path="url(#clip0)">
<line x1="30.0654" y1="7.63672" x2="1.66327" y2="7.63672" stroke="#FF0000" stroke-width="1.5"/>
<line x1="15.8745" y1="5" x2="15.8745" y2="11.5974" stroke="#FF0000"/>
<path fill-rule="evenodd" clip-rule="evenodd" d="M8.24358 9.31341L7.38066 7.83984L6.51773 9.31341L1.84157 17.2986L1.73931 17.4732H1.5H0V18.9732C0 19.8387 0.222304 20.6809 0.63465 21.4472C1.04562 22.2111 1.63243 22.8768 2.33797 23.42C3.0432 23.9629 3.86133 24.3794 4.739 24.6593C5.61707 24.9393 6.54938 25.0809 7.48513 25.0809C8.42088 25.0809 9.35319 24.9393 10.2313 24.6593C11.1089 24.3794 11.9271 23.9629 12.6323 23.42C13.3378 22.8768 13.9246 22.2111 14.3356 21.4472C14.748 20.6809 14.9703 19.8387 14.9703 18.9732V17.4732H13.4703H13.022L12.9198 17.2986L8.24358 9.31341ZM11.8632 17.4732L11.4712 16.8039L7.96008 10.8082L7.38066 9.81874L6.80123 10.8082L3.29009 16.8039L2.89816 17.4732L7.48513 17.4732H11.8632ZM7.48513 18.9732H3L1.5 18.9732C1.5 19.4843 1.61045 19.9912 1.82602 20.4732C1.86567 20.5619 1.90887 20.6497 1.95559 20.7365C2.25637 21.2956 2.69723 21.8035 3.253 22.2314C3.80877 22.6592 4.46857 22.9986 5.19472 23.2302C5.92087 23.4618 6.69915 23.5809 7.48513 23.5809C8.27111 23.5809 9.04939 23.4618 9.77554 23.2302C10.5017 22.9986 11.1615 22.6592 11.7173 22.2314C12.273 21.8035 12.7139 21.2956 13.0147 20.7365C13.0614 20.6497 13.1046 20.5619 13.1442 20.4732C13.3598 19.9912 13.4703 19.4843 13.4703 18.9732H11.9703H7.48513Z" fill="#FF0000"/>
<path fill-rule="evenodd" clip-rule="evenodd" d="M25.0014 9.31341L24.1385 7.83984L23.2755 9.31341L18.5994 17.2986L18.4971 17.4732H18.2578H16.7578V18.9732C16.7578 19.8387 16.9801 20.6809 17.3925 21.4472C17.8034 22.2111 18.3902 22.8768 19.0958 23.42C19.801 23.9629 20.6191 24.3794 21.4968 24.6593C22.3749 24.9393 23.3072 25.0809 24.2429 25.0809C25.1787 25.0809 26.111 24.9393 26.9891 24.6593C27.8667 24.3794 28.6849 23.9629 29.3901 23.42C30.0956 22.8768 30.6824 22.2111 31.0934 21.4472C31.5058 20.6809 31.7281 19.8387 31.7281 18.9732V17.4732H30.2281H29.7798L29.6776 17.2986L25.0014 9.31341ZM28.621 17.4732L28.229 16.8039L24.7179 10.8082L24.1385 9.81874L23.559 10.8082L20.0479 16.8039L19.656 17.4732L24.2429 17.4732H28.621ZM24.2429 18.9732H19.7578L18.2578 18.9732C18.2578 19.4843 18.3683 19.9912 18.5838 20.4732C18.6235 20.5619 18.6667 20.6497 18.7134 20.7365C19.0142 21.2956 19.455 21.8035 20.0108 22.2314C20.5666 22.6592 21.2264 22.9986 21.9525 23.2302C22.6787 23.4618 23.457 23.5809 24.2429 23.5809C25.0289 23.5809 25.8072 23.4618 26.5333 23.2302C27.2595 22.9986 27.9193 22.6592 28.4751 22.2314C29.0308 21.8035 29.4717 21.2956 29.7725 20.7365C29.8192 20.6497 29.8624 20.5619 29.902 20.4732C30.1176 19.9912 30.2281 19.4843 30.2281 18.9732H28.7281H24.2429Z" fill="#FF0000"/>
</g>
<defs>
<clipPath id="clip0">
<rect width="32" height="32" fill="white"/>
</clipPath>
</defs>
</svg>

<svg width="58" height="32" fill="none" xmlns="http://www.w3.org/2000/svg"><path d="M39.52 25.104c-.597-.981-1.056-2.107-1.376-3.376-.32-1.28-.48-2.65-.48-4.112 0-1.461.16-2.832.48-4.112.32-1.29.779-2.416 1.376-3.376h1.088a12.798 12.798 0 00-1.392 3.472c-.288 1.237-.432 2.576-.432 4.016s.144 2.779.432 4.016a12.798 12.798 0 001.392 3.472H39.52zm7.042-3.008c-.864 0-1.638-.23-2.32-.688-.672-.459-1.2-1.115-1.584-1.968-.374-.864-.56-1.877-.56-3.04s.186-2.17.56-3.024c.384-.864.912-1.525 1.584-1.984.682-.459 1.456-.688 2.32-.688.864 0 1.632.23 2.304.688.682.459 1.216 1.12 1.6 1.984.384.853.576 1.861.576 3.024s-.192 2.176-.576 3.04c-.384.853-.918 1.51-1.6 1.968-.672.459-1.44.688-2.304.688zm0-1.056c.65 0 1.221-.181 1.712-.544.501-.363.89-.89 1.168-1.584.277-.693.416-1.53.416-2.512 0-.981-.139-1.819-.416-2.512-.278-.693-.667-1.221-1.168-1.584-.491-.363-1.062-.544-1.712-.544-.651 0-1.227.181-1.728.544-.491.363-.875.89-1.152 1.584-.278.693-.416 1.53-.416 2.512 0 .981.138 1.819.416 2.512.277.693.661 1.221 1.152 1.584a2.872 2.872 0 001.728.544zm5.937 4.064a12.833 12.833 0 001.392-3.456c.299-1.237.448-2.581.448-4.032 0-1.45-.149-2.79-.448-4.016a12.798 12.798 0 00-1.392-3.472h1.088c.598.96 1.056 2.085 1.376 3.376.331 1.28.496 2.65.496 4.112 0 1.461-.16 2.832-.48 4.112-.32 1.28-.784 2.405-1.392 3.376H52.5z" fill="#8D8D8D"/><g clip-path="url(#clip0)"><path stroke="red" stroke-width="1.5" d="M30.065 7.637H1.663"/><path stroke="red" d="M15.874 5v6.597"/><path fill-rule="evenodd" clip-rule="evenodd" d="M8.244 9.313L7.38 7.84l-.863 1.473L1.842 17.3l-.103.174H0v1.5c0 .866.222 1.708.635 2.474.41.764.997 1.43 1.703 1.973.705.543 1.523.96 2.401 1.24.878.28 1.81.42 2.746.42.936 0 1.868-.14 2.746-.42a7.838 7.838 0 002.401-1.24 6.236 6.236 0 001.704-1.973 5.207 5.207 0 00.634-2.474v-1.5h-1.948l-.102-.174-4.676-7.986zm3.62 8.16l-.393-.67-3.51-5.995-.58-.99-.58.99-3.51 5.996-.393.67h8.965zm-4.379 1.5H1.5a3.663 3.663 0 00.456 1.764c.3.559.741 1.067 1.297 1.494a6.341 6.341 0 001.942 1c.726.23 1.504.35 2.29.35s1.564-.12 2.29-.35a6.342 6.342 0 001.942-1 4.738 4.738 0 001.298-1.495 3.662 3.662 0 00.456-1.763H7.484zm17.516-9.66l-.863-1.473-.863 1.473L18.6 17.3l-.102.174h-1.74v1.5c0 .866.223 1.708.635 2.474a6.23 6.23 0 001.704 1.973 7.84 7.84 0 002.4 1.24c.879.28 1.811.42 2.747.42.936 0 1.868-.14 2.746-.42a7.838 7.838 0 002.401-1.24 6.236 6.236 0 001.703-1.973 5.207 5.207 0 00.635-2.474v-1.5H29.78l-.102-.174L25 9.313zm3.62 8.16l-.392-.67-3.511-5.995-.58-.99-.579.99-3.511 5.996-.392.67h8.965zm-4.378 1.5h-5.985a3.664 3.664 0 00.455 1.764 4.728 4.728 0 001.298 1.494 6.342 6.342 0 001.942 1c.726.23 1.504.35 2.29.35s1.564-.12 2.29-.35a6.341 6.341 0 001.942-1 4.738 4.738 0 001.297-1.495 3.662 3.662 0 00.456-1.763h-5.985z" fill="red"/></g><defs><clipPath id="clip0"><path fill="#fff" d="M0 0h32v32H0z"/></clipPath></defs></svg>
